X:1
T:Damours me plains
T:Damours me plains
T:Rogier Pathie
C:Rogier Pathie
%%score [ 1 [ 2 3 ] 4 ]
L:1/8
Q:1/4=96
M:2/2
K:F
V:1 treble nm="Soprano" snm="S"
V:2 treble-8 nm="Tenor 1" snm="T 1"
V:3 treble-8 nm="Tenor 2" snm="T 2"
V:4 bass nm="Bass" snm="B"
V:1
 F4 G4 | A4 F4 | z2 F2 A3 B | c6 c2 | B4 A4- | A4 z2 c2- | c2 B2 A2 G2- | GFED C2 D2 | %8
w: Da- mour|me plains,|et non de|vous ma-|my- e,|_ que|_ si long temps|_ _ _ _ jay re-|
 EFGA GF F2- | F2 E2 F4 | z2 F2 G4 | A4 F4 | z2 F2 A3 B | c6 c2 | B4 A4- | A4 z2 c2- | %16
w: quis _ _ _ _ _ sans|_ a- voir,|mais si|vou- lez|es- tre son|en- ne|my- e,|_ vous|
 c2 B2 A2 G2- | GFED C2 D2 | EFGA GF F2- | F2 E2 F4 | z2 F2 F4 | G4 A4- | A2 A2 A4- | A2 G2 F2 F2 | %24
w: _ con- fon- drez|_ _ _ _ _ son|dir' _ _ _ et _ son|_ sca- voir,|vous seul'|le'au- rez|_ c'est' e-|* sti- m'et pou-|
 E4 z2 E2 | F4 D4 | C8 | z2 G2 G2 G2 | F2 D2 F4 | E4 z2 G2 | G2 G2 F2 D2 | F4 C4- | !fermata!C8 |: %33
w: voir, si|aul- tre-|ment|ne scay que|fai- re'ou di-|re, ne|scay que fai- re'ou|di- re|_|
 z2 A2 A4 | G4 F4- | F2 F2 F2 E2 | D2 D2 C4- | C4 z4 | z4 c4 | B2 A2 BAGF | E2 C2 F2 F2 | %41
w: ab- bais-|sez donc|_ son ri- gou-|reulx vou- loir,|_|et|me don- nez _ _ _|_ le bien que|
 G2 G2 A2 F2- | F2 B3 A A2- | A2 G2 A4 | z2 c2 B2 A2 | BAGF E2 C2 | F2 F2 G2 G2 | A2 F4 B2- | %48
w: je de- si- *||* * re,|et me don-|nez _ _ _ _ le|bien que je de-|si- * *|
 BAGF E2 F2- | F2 E2 F4- :| F8 |] %51
w: |* * re.||
V:2
 z8 | c4 dcde | f2 f2 c4 | F2 A3 B c2 | d2 e2 f4 | z2 c2 A2 F2 | c2 z4 c2 | B2 A2 G2 F2 | %8
w: |Da- mour _ _ _|_ me plains,|et non de vous|ma- my- e,|que si long|temps, que|si long temps _|
 G2 c2 d2 B2 | c4 A4- | A4 z4 | c4 dcde | f2 f2 c4 | F2 A3 B c2 | d2 e2 f4 | z2 c2 A2 F2 | %16
w: jay re- quis sans|a- voir,|_|mais si _ _ _|_ vou- lez|es- tre son en-|ne- my- e,|vous con- fon-|
 c2 z4 c2 | B2 A2 G2 F2 | G2 c2 d2 B2 | c4 A4 | z2 A2 B4 | B4 A4 | z2 A2 A2 FG | AB c2 F2 F2 | %24
w: drez,- vous|con- fon- drez son|dir' et son _|sca- voir,|vous seul'|le'au- rez|c'est' e- sti- *|* * * m'et pou-|
 G4 z2 c2 | A4 B4 | cBAG A4 | G8 | d8 | z2 c2 c2 c2 | B2 G2 B4 | F3 G A4 | G4 !fermata!A4 |: %33
w: voir, si|aul- *||tre-|ment|ne scay que|fai- re'ou di-||* re,|
 z2 f2 f4 | e4 d4- | d2 d2 d2 c2 |"^-natural" c2 B2 c4 | z2 c2 B2 G2 | A2 FG ABcB/c/ | d2 f3 e d2 | %40
w: ab- bais-|sez donc|_ son ri- gou-|reulx vou- loir,|et me don-|nez le _ _ _ _ _ _|_ bien _ _|
 cdef dc f2- | fe e2 f3 e | d2 g2 e2 f2 | d4 d2 f2 | e2 c2 d2 c2- |"^-natural" c2 B2 c4 | %46
w: que _ _ _ _ _ je-|_ _ de- si- *||re, et me|don- * * *|* * nez,|
 z2 F2 B2 B2 | c2 c2 d4 | B2 d2 c2 B2 | c4 A4- :| A8 |] %51
w: le bien que|je de- si-||* re.||
V:3
 z4 z2 c2 | A2 F2 B3 A/B/ | A4 z2 F2 | A3 B c2 F2 | BABc d4 | c4 z2 A2 | G2 F2 c3 B/A/ | %7
w: Da-|mour me plains, _ _|_ et|non de vous ma-|my- * * * *|e, que|si long temps _ _|
 G2 c2 c2 B2 | c3 B/c/ BAGF | G4 F4- | F4 z2 c2 | A2 F2 B4 | A4 z2 F2 | A3 B c2 F2 | BABc d4 | %15
w: _ jay re- quis|sans _ _ _ _ _ _|a- voir,|_ mais|si _ vou-|lez es-|tre son en- ne-|my- * * * *|
 c4 z2 A2 | G2 F2 c3 B/A/ | G2 c2 c2 B2 | c4 BAGF | G4 F4 | z2 F2 D4 | E4 F2 A2 | AGAB c2 d2- | %23
w: * vous|con- fon- drez _ _|_ son dir' et|son _ _ _ _|sca- voir,|vous seul'|le'au- rez c'est|e- * * * * sti-|
 d2 c4 B2 | c4 z2 G2 | F6 G2 | A4 z2 c2 | c2 c2 B2 G2 | B4 F2 A2 | A2 A2 G2 E2 | G4 D4- | %31
w: * m'et pou-|voir, si|aul- tre-|ment ne|scay que fai- re'ou|di- re, ne|scay que fai- re'ou|di- re,|
 D2 D2 E2 F2- | F2 E2 !fermata!F4 |: z2 c2 c4 | c4 A4- | A2 A2 BA GF | G2 G2 E4 | C4 D2 E2 | %38
w: _ que fai- re'ou|_ di- re,|ab- bais-|sez donc|_ son ri- * gou- *|reulx vou- loir,|et me don-|
 FGAB c2 A2 | B2 c2 dcBA | G2 A3 F B2 | G2 c3 A d2- | dcdB c2 d2 | B4 A4- | A4 z2 C2 | %45
w: nez, _ _ _ _ et|me don- nez _ _ _|le bien que je|de- si- * *||* re,|_ le|
 F2 F2 G2 A2 | GF F3 EED | FEFG AD d2- | dcBA G2 F2 | G4 F4- :| F8 |] %51
w: bien que je de-|si- * * * * *|||* re.||
V:4
 z8 | F,4 D,2 B,,2 | D,C,D,E, F,4 | z2 F,2 F,2 A,2 | G,2 G,2 D,4 | F,4 z2 F,2 | E,2 D,2 C,4 | %7
w: |Da- mour me|plains, _ _ _ _|et non de|vous me- my-|e, que|si long temps,|
 z2 F,2 E,2 D,2 | C,2 A,,2 B,,2 D,2 | C,2 C,2 F,,4- | F,,4 z4 | F,4 D,2 B,,2 | D,C,D,E, F,4 | %13
w: jay re- quis|sans _ _ _|_ a- voir,|_|mais si _|vou- * * * lez,|
 z2 F,2 F,2 A,2 | G,2 G,2 D,4 | F,4 z2 F,2 | E,2 D,2 C,4 | z2 F,2 E,2 D,2 | C,2 A,,2 B,,2 D,2 | %19
w: es- tre son|en- ne my-|e, vous|con- fon- drez,|son dir' et|son _ _ _|
 C,2 C,2 F,,4 | z2 F,,2 B,,4 | G,,4 F,,4 | F,4 F,2 D,2 | F,E,D,C, D,2 D,2 | C,4 z2 C,2 | D,4 B,,4 | %26
w: _ sca- voir,|vous seul'|le'au- rez|c'est e- sti-|m'et _ _ _ _ pou-|voir, si|aul- tre-|
 F,3 F, F,2 F,2 | _E,2 C,2 E,4 | B,,2 B,,2 D,2 D,2 | A,,3 B,, C,4 | G,,4 z2 B,,2 | %31
w: ment ne scay que|fai- re'ou di-|re, ne scay que|fai- re'ou di-|re, ne|
 B,,2 B,,2 A,,2 F,,2 | C,4 !fermata!F,,4 |: z2 F,2 F,4 | C,4 D,4 | z2 D,2 B,,2 C,2 | %36
w: scay que fai- re'ou|di- re,|ab- bais-|sez donc,|son ri- gou-|
 G,,2 G,,2 C,4 | A,,4 B,,2 C,2 | F,,8 | z2 F,,2 B,,2 B,,2 | C,2 C,2 D,2 B,,2 | z2 C,2 F,2 F,2 | %42
w: reulx vou- loir,|et me don-|nez,|le bien que|je de- si- re,|le bien que|
 G,2 G,2 A,2 F,2 | G,4 D,4 | z2 A,,2 B,,2 C,2 | D,3 D, C,4 | B,,2 A,,2 G,,4 | %47
w: je de- si- *|* re,|le bien que|je- de- si-||
 F,,2 F,E, D,C,B,,A,, | G,,4 C,2 D,2 | C,4 F,,4- :| F,,8 |] %51
w: re, de _ si- * * *||* re.||

